images/5459702.svg

<?xml version="1.0" encoding="UTF-8"?>
<svg xmlns="http://www.w3.org/2000/svg" xmlns:xlink="http://www.w3.org/1999/xlink" width="300pt" height="300pt" viewBox="0 0 300 300" version="1.1">
<defs>
<g>
<symbol overflow="visible" id="glyph0-0">
<path style="stroke:none;" d="M 0.546875 1.9375 L 0.546875 -7.75 L 6.046875 -7.75 L 6.046875 1.9375 Z M 1.171875 1.328125 L 5.4375 1.328125 L 5.4375 -7.140625 L 1.171875 -7.140625 Z M 1.171875 1.328125 "/>
</symbol>
<symbol overflow="visible" id="glyph0-1">
<path style="stroke:none;" d="M 1.078125 -8.015625 L 2.546875 -8.015625 L 6.09375 -1.3125 L 6.09375 -8.015625 L 7.15625 -8.015625 L 7.15625 0 L 5.6875 0 L 2.125 -6.703125 L 2.125 0 L 1.078125 0 Z M 1.078125 -8.015625 "/>
</symbol>
<symbol overflow="visible" id="glyph0-2">
<path style="stroke:none;" d="M 4.328125 -7.28125 C 3.546875 -7.28125 2.921875 -6.984375 2.453125 -6.390625 C 1.992188 -5.804688 1.765625 -5.007812 1.765625 -4 C 1.765625 -2.988281 1.992188 -2.1875 2.453125 -1.59375 C 2.921875 -1.007812 3.546875 -0.71875 4.328125 -0.71875 C 5.117188 -0.71875 5.742188 -1.007812 6.203125 -1.59375 C 6.660156 -2.1875 6.890625 -2.988281 6.890625 -4 C 6.890625 -5.007812 6.660156 -5.804688 6.203125 -6.390625 C 5.742188 -6.984375 5.117188 -7.28125 4.328125 -7.28125 Z M 4.328125 -8.171875 C 5.453125 -8.171875 6.351562 -7.789062 7.03125 -7.03125 C 7.707031 -6.28125 8.046875 -5.269531 8.046875 -4 C 8.046875 -2.738281 7.707031 -1.726562 7.03125 -0.96875 C 6.351562 -0.21875 5.453125 0.15625 4.328125 0.15625 C 3.203125 0.15625 2.300781 -0.21875 1.625 -0.96875 C 0.957031 -1.71875 0.625 -2.726562 0.625 -4 C 0.625 -5.269531 0.957031 -6.28125 1.625 -7.03125 C 2.300781 -7.789062 3.203125 -8.171875 4.328125 -8.171875 Z M 4.328125 -8.171875 "/>
</symbol>
<symbol overflow="visible" id="glyph0-3">
<path style="stroke:none;" d="M 1.078125 -8.015625 L 2.171875 -8.015625 L 2.171875 -4.734375 L 6.109375 -4.734375 L 6.109375 -8.015625 L 7.1875 -8.015625 L 7.1875 0 L 6.109375 0 L 6.109375 -3.8125 L 2.171875 -3.8125 L 2.171875 0 L 1.078125 0 Z M 1.078125 -8.015625 "/>
</symbol>
</g>
</defs>
<g id="surface32465">
<rect x="0" y="0" width="300" height="300" style="fill:rgb(100%,100%,100%);fill-opacity:1;stroke:none;"/>
<path style="fill:none;stroke-width:1;stroke-linecap:butt;stroke-linejoin:miter;stroke:rgb(0%,0%,0%);stroke-opacity:1;stroke-miterlimit:10;" d="M 145.378906 180.75 L 145.378906 180.75 M 145.078125 183.734375 L 146.117188 183.660156 M 144.777344 186.722656 L 146.855469 186.566406 M 144.472656 189.707031 L 147.59375 189.472656 M 144.171875 192.691406 L 148.332031 192.382812 M 143.871094 195.675781 L 149.070312 195.289062 M 143.570312 198.660156 L 149.808594 198.195312 M 143.269531 201.644531 L 150.546875 201.105469 M 142.96875 204.628906 L 151.285156 204.011719 M 142.707031 207.234375 L 151.929688 206.550781 "/>
<path style="fill:none;stroke-width:1.2;stroke-linecap:butt;stroke-linejoin:miter;stroke:rgb(0%,0%,0%);stroke-opacity:1;stroke-miterlimit:10;" d="M 145.378906 180.75 L 138.046875 155.585938 "/>
<path style="fill:none;stroke-width:1.2;stroke-linecap:butt;stroke-linejoin:miter;stroke:rgb(0%,0%,0%);stroke-opacity:1;stroke-miterlimit:10;" d="M 145.378906 180.75 L 119.582031 185.414062 "/>
<path style="fill:none;stroke-width:1.2;stroke-linecap:butt;stroke-linejoin:miter;stroke:rgb(0%,0%,100%);stroke-opacity:1;stroke-miterlimit:10;" d="M 171.578125 181.554688 L 158.476562 181.152344 "/>
<path style="fill:none;stroke-width:1.2;stroke-linecap:butt;stroke-linejoin:miter;stroke:rgb(0%,0%,0%);stroke-opacity:1;stroke-miterlimit:10;" d="M 158.476562 181.152344 L 145.378906 180.75 "/>
<path style="fill:none;stroke-width:1.2;stroke-linecap:butt;stroke-linejoin:miter;stroke:rgb(0%,0%,0%);stroke-opacity:1;stroke-miterlimit:10;" d="M 138.046875 155.585938 L 159.714844 140.835938 "/>
<path style="fill:none;stroke-width:1.2;stroke-linecap:butt;stroke-linejoin:miter;stroke:rgb(0%,0%,0%);stroke-opacity:1;stroke-miterlimit:10;" d="M 143.683594 159.207031 L 161.015625 147.410156 "/>
<path style="fill:none;stroke-width:1.2;stroke-linecap:butt;stroke-linejoin:miter;stroke:rgb(0%,0%,0%);stroke-opacity:1;stroke-miterlimit:10;" d="M 159.714844 140.835938 L 180.4375 156.882812 "/>
<path style="fill:none;stroke-width:1.2;stroke-linecap:butt;stroke-linejoin:miter;stroke:rgb(0%,0%,0%);stroke-opacity:1;stroke-miterlimit:10;" d="M 180.4375 156.882812 L 176.007812 169.21875 "/>
<path style="fill:none;stroke-width:1.2;stroke-linecap:butt;stroke-linejoin:miter;stroke:rgb(0%,0%,100%);stroke-opacity:1;stroke-miterlimit:10;" d="M 176.007812 169.21875 L 171.578125 181.554688 "/>
<path style=" stroke:none;fill-rule:nonzero;fill:rgb(0%,0%,0%);fill-opacity:1;" d="M 180.4375 156.882812 L 206.898438 153.992188 L 204.308594 145.109375 Z M 180.4375 156.882812 "/>
<path style="fill:none;stroke-width:1.2;stroke-linecap:butt;stroke-linejoin:miter;stroke:rgb(0%,0%,100%);stroke-opacity:1;stroke-miterlimit:10;" d="M 171.578125 181.554688 L 178.953125 192.386719 "/>
<path style="fill:none;stroke-width:1.2;stroke-linecap:butt;stroke-linejoin:miter;stroke:rgb(0%,0%,0%);stroke-opacity:1;stroke-miterlimit:10;" d="M 178.953125 192.386719 L 186.328125 203.222656 "/>
<path style=" stroke:none;fill-rule:nonzero;fill:rgb(100%,100%,100%);fill-opacity:1;" d="M 167.578125 175.054688 L 175.578125 175.054688 L 175.578125 188.054688 L 167.578125 188.054688 Z M 167.578125 175.054688 "/>
<g style="fill:rgb(0%,0%,100%);fill-opacity:1;">
  <use xlink:href="#glyph0-1" x="167.578125" y="184.956055"/>
</g>
<path style="fill:none;stroke-width:1.2;stroke-linecap:butt;stroke-linejoin:miter;stroke:rgb(0%,0%,0%);stroke-opacity:1;stroke-miterlimit:10;" d="M 183.550781 201.882812 L 177.855469 213.6875 "/>
<path style="fill:none;stroke-width:1.2;stroke-linecap:butt;stroke-linejoin:miter;stroke:rgb(100%,0%,0%);stroke-opacity:1;stroke-miterlimit:10;" d="M 177.855469 213.6875 L 172.160156 225.492188 "/>
<path style="fill:none;stroke-width:1.2;stroke-linecap:butt;stroke-linejoin:miter;stroke:rgb(0%,0%,0%);stroke-opacity:1;stroke-miterlimit:10;" d="M 189.105469 204.5625 L 183.410156 216.367188 "/>
<path style="fill:none;stroke-width:1.2;stroke-linecap:butt;stroke-linejoin:miter;stroke:rgb(100%,0%,0%);stroke-opacity:1;stroke-miterlimit:10;" d="M 183.410156 216.367188 L 177.714844 228.171875 "/>
<path style="fill:none;stroke-width:1.2;stroke-linecap:butt;stroke-linejoin:miter;stroke:rgb(0%,0%,0%);stroke-opacity:1;stroke-miterlimit:10;" d="M 186.328125 203.222656 L 212.46875 201.28125 "/>
<path style=" stroke:none;fill-rule:nonzero;fill:rgb(100%,100%,100%);fill-opacity:1;" d="M 165.9375 220.332031 L 174.9375 220.332031 L 174.9375 233.332031 L 165.9375 233.332031 Z M 165.9375 220.332031 "/>
<g style="fill:rgb(100%,0%,0%);fill-opacity:1;">
  <use xlink:href="#glyph0-2" x="165.9375" y="230.233398"/>
</g>
<path style="fill:none;stroke-width:1.2;stroke-linecap:butt;stroke-linejoin:miter;stroke:rgb(0%,0%,0%);stroke-opacity:1;stroke-miterlimit:10;" d="M 212.46875 201.28125 L 227.21875 222.949219 "/>
<path style="fill:none;stroke-width:1.2;stroke-linecap:butt;stroke-linejoin:miter;stroke:rgb(0%,0%,0%);stroke-opacity:1;stroke-miterlimit:10;" d="M 219.042969 199.976562 L 230.84375 217.3125 "/>
<path style="fill:none;stroke-width:1.2;stroke-linecap:butt;stroke-linejoin:miter;stroke:rgb(0%,0%,0%);stroke-opacity:1;stroke-miterlimit:10;" d="M 223.859375 177.671875 L 212.46875 201.28125 "/>
<path style="fill:none;stroke-width:1.2;stroke-linecap:butt;stroke-linejoin:miter;stroke:rgb(0%,0%,0%);stroke-opacity:1;stroke-miterlimit:10;" d="M 227.21875 222.949219 L 253.359375 221.007812 "/>
<path style="fill:none;stroke-width:1.2;stroke-linecap:butt;stroke-linejoin:miter;stroke:rgb(0%,0%,0%);stroke-opacity:1;stroke-miterlimit:10;" d="M 253.359375 221.007812 L 264.75 197.402344 "/>
<path style="fill:none;stroke-width:1.2;stroke-linecap:butt;stroke-linejoin:miter;stroke:rgb(0%,0%,0%);stroke-opacity:1;stroke-miterlimit:10;" d="M 248.945312 215.96875 L 258.054688 197.082031 "/>
<path style="fill:none;stroke-width:1.2;stroke-linecap:butt;stroke-linejoin:miter;stroke:rgb(0%,0%,0%);stroke-opacity:1;stroke-miterlimit:10;" d="M 264.75 197.402344 L 250 175.734375 "/>
<path style="fill:none;stroke-width:1.2;stroke-linecap:butt;stroke-linejoin:miter;stroke:rgb(0%,0%,0%);stroke-opacity:1;stroke-miterlimit:10;" d="M 250 175.734375 L 223.859375 177.671875 "/>
<path style="fill:none;stroke-width:1.2;stroke-linecap:butt;stroke-linejoin:miter;stroke:rgb(0%,0%,0%);stroke-opacity:1;stroke-miterlimit:10;" d="M 247.84375 182.078125 L 226.929688 183.628906 "/>
<path style="fill:none;stroke-width:1.2;stroke-linecap:butt;stroke-linejoin:miter;stroke:rgb(0%,0%,0%);stroke-opacity:1;stroke-miterlimit:10;" d="M 205.601562 149.550781 L 211.835938 124.089844 "/>
<path style="fill:none;stroke-width:1.2;stroke-linecap:butt;stroke-linejoin:miter;stroke:rgb(0%,0%,0%);stroke-opacity:1;stroke-miterlimit:10;" d="M 211.835938 124.089844 L 237 116.757812 "/>
<path style="fill:none;stroke-width:1.2;stroke-linecap:butt;stroke-linejoin:miter;stroke:rgb(0%,0%,0%);stroke-opacity:1;stroke-miterlimit:10;" d="M 212.628906 117.4375 L 232.757812 111.570312 "/>
<path style="fill:none;stroke-width:1.2;stroke-linecap:butt;stroke-linejoin:miter;stroke:rgb(0%,0%,0%);stroke-opacity:1;stroke-miterlimit:10;" d="M 192.902344 105.964844 L 211.835938 124.089844 "/>
<path style="fill:none;stroke-width:1.2;stroke-linecap:butt;stroke-linejoin:miter;stroke:rgb(0%,0%,0%);stroke-opacity:1;stroke-miterlimit:10;" d="M 237 116.757812 L 243.234375 91.296875 "/>
<path style="fill:none;stroke-width:1.2;stroke-linecap:butt;stroke-linejoin:miter;stroke:rgb(0%,0%,0%);stroke-opacity:1;stroke-miterlimit:10;" d="M 243.234375 91.296875 L 224.300781 73.167969 "/>
<path style="fill:none;stroke-width:1.2;stroke-linecap:butt;stroke-linejoin:miter;stroke:rgb(0%,0%,0%);stroke-opacity:1;stroke-miterlimit:10;" d="M 237.074219 93.9375 L 221.929688 79.4375 "/>
<path style="fill:none;stroke-width:1.2;stroke-linecap:butt;stroke-linejoin:miter;stroke:rgb(0%,0%,0%);stroke-opacity:1;stroke-miterlimit:10;" d="M 224.300781 73.167969 L 199.136719 80.503906 "/>
<path style="fill:none;stroke-width:1.2;stroke-linecap:butt;stroke-linejoin:miter;stroke:rgb(0%,0%,0%);stroke-opacity:1;stroke-miterlimit:10;" d="M 199.136719 80.503906 L 192.902344 105.964844 "/>
<path style="fill:none;stroke-width:1.2;stroke-linecap:butt;stroke-linejoin:miter;stroke:rgb(0%,0%,0%);stroke-opacity:1;stroke-miterlimit:10;" d="M 204.503906 84.515625 L 199.515625 104.882812 "/>
<path style="fill:none;stroke-width:1.2;stroke-linecap:butt;stroke-linejoin:miter;stroke:rgb(0%,0%,0%);stroke-opacity:1;stroke-miterlimit:10;" d="M 116.679688 184.371094 L 112.25 196.707031 "/>
<path style="fill:none;stroke-width:1.2;stroke-linecap:butt;stroke-linejoin:miter;stroke:rgb(100%,0%,0%);stroke-opacity:1;stroke-miterlimit:10;" d="M 112.25 196.707031 L 107.820312 209.039062 "/>
<path style="fill:none;stroke-width:1.2;stroke-linecap:butt;stroke-linejoin:miter;stroke:rgb(0%,0%,0%);stroke-opacity:1;stroke-miterlimit:10;" d="M 122.484375 186.457031 L 118.054688 198.789062 "/>
<path style="fill:none;stroke-width:1.2;stroke-linecap:butt;stroke-linejoin:miter;stroke:rgb(100%,0%,0%);stroke-opacity:1;stroke-miterlimit:10;" d="M 118.054688 198.789062 L 113.625 211.125 "/>
<path style="fill:none;stroke-width:1.2;stroke-linecap:butt;stroke-linejoin:miter;stroke:rgb(0%,0%,0%);stroke-opacity:1;stroke-miterlimit:10;" d="M 119.582031 185.414062 L 111.117188 175.410156 "/>
<path style="fill:none;stroke-width:1.2;stroke-linecap:butt;stroke-linejoin:miter;stroke:rgb(0%,0%,100%);stroke-opacity:1;stroke-miterlimit:10;" d="M 111.117188 175.410156 L 102.648438 165.40625 "/>
<path style=" stroke:none;fill-rule:nonzero;fill:rgb(100%,100%,100%);fill-opacity:1;" d="M 101.722656 203.582031 L 110.722656 203.582031 L 110.722656 216.582031 L 101.722656 216.582031 Z M 101.722656 203.582031 "/>
<g style="fill:rgb(100%,0%,0%);fill-opacity:1;">
  <use xlink:href="#glyph0-2" x="101.722656" y="213.483398"/>
</g>
<path style="fill:none;stroke-width:1.2;stroke-linecap:butt;stroke-linejoin:miter;stroke:rgb(0%,0%,100%);stroke-opacity:1;stroke-miterlimit:10;" d="M 102.648438 165.40625 L 89.75 167.738281 "/>
<path style="fill:none;stroke-width:1.2;stroke-linecap:butt;stroke-linejoin:miter;stroke:rgb(0%,0%,0%);stroke-opacity:1;stroke-miterlimit:10;" d="M 89.75 167.738281 L 76.855469 170.066406 "/>
<path style=" stroke:none;fill-rule:nonzero;fill:rgb(100%,100%,100%);fill-opacity:1;" d="M 94.648438 158.90625 L 111.648438 158.90625 L 111.648438 171.90625 L 94.648438 171.90625 Z M 94.648438 158.90625 "/>
<g style="fill:rgb(0%,0%,100%);fill-opacity:1;">
  <use xlink:href="#glyph0-1" x="94.648438" y="168.807617"/>
  <use xlink:href="#glyph0-3" x="102.631836" y="168.807617"/>
</g>
<path style="fill:none;stroke-width:1.2;stroke-linecap:butt;stroke-linejoin:miter;stroke:rgb(0%,0%,0%);stroke-opacity:1;stroke-miterlimit:10;" d="M 76.855469 170.066406 L 59.917969 150.0625 "/>
<path style="fill:none;stroke-width:1.2;stroke-linecap:butt;stroke-linejoin:miter;stroke:rgb(0%,0%,0%);stroke-opacity:1;stroke-miterlimit:10;" d="M 59.917969 150.0625 L 35.25 141.199219 "/>
<path style="fill:none;stroke-width:1.2;stroke-linecap:butt;stroke-linejoin:miter;stroke:rgb(0%,0%,0%);stroke-opacity:1;stroke-miterlimit:10;" d="M 55.257812 124.265625 L 59.917969 150.0625 "/>
<path style="fill:none;stroke-width:1.2;stroke-linecap:butt;stroke-linejoin:miter;stroke:rgb(0%,0%,0%);stroke-opacity:1;stroke-miterlimit:10;" d="M 35.25 141.199219 L 55.257812 124.265625 "/>
</g>
</svg>

<svg xmlns="http://www.w3.org/2000/svg" xmlns:xlink="http://www.w3.org/1999/xlink" width="300pt" height="300pt" viewBox="0 0 300 300"><defs><symbol overflow="visible"><path d="M.547 1.938V-7.75h5.5v9.688zm.625-.61h4.266v-8.47H1.171zm0 0"/></symbol><symbol overflow="visible" id="a"><path d="M1.078-8.016h1.47l3.546 6.704v-6.704h1.062V0H5.688L2.124-6.703V0H1.078zm0 0"/></symbol><symbol overflow="visible" id="b"><path d="M4.328-7.28c-.78 0-1.406.296-1.875.89-.46.585-.687 1.382-.687 2.39 0 1.012.226 1.813.687 2.406.47.586 1.094.875 1.875.875.79 0 1.414-.288 1.875-.874.457-.593.688-1.394.688-2.406 0-1.008-.23-1.805-.687-2.39-.46-.594-1.086-.89-1.875-.89zm0-.892c1.125 0 2.024.383 2.703 1.14C7.708-6.28 8.048-5.27 8.048-4c0 1.262-.34 2.273-1.016 3.03C6.353-.22 5.454.157 4.33.157S2.3-.22 1.625-.97c-.668-.75-1-1.757-1-3.03 0-1.27.332-2.28 1-3.03.676-.76 1.578-1.142 2.703-1.142zm0 0"/></symbol><symbol overflow="visible" id="c"><path d="M1.078-8.016h1.094v3.282H6.11v-3.282h1.077V0H6.11v-3.813H2.17V0H1.078zm0 0"/></symbol></defs><g><path fill="#fff" d="M0 0h300v300H0z"/><path d="M145.38 180.75m-.302 2.984l1.04-.074m-1.34 3.063l2.077-.157m-2.382 3.14l3.12-.233m-3.42 3.218l4.16-.307m-4.462 3.293l5.2-.387m-5.5 3.37l6.24-.465m-6.54 3.45l7.277-.54m-7.578 3.524l8.315-.618m-8.578 3.222l9.223-.683" stroke="#000" stroke-miterlimit="10" fill="none"/><path d="M145.38 180.75l-7.333-25.164M145.38 180.75l-25.798 4.664" stroke-width="1.2" stroke="#000" stroke-miterlimit="10" fill="none"/><path d="M171.578 181.555l-13.1-.403" stroke-width="1.2" stroke="#00f" stroke-miterlimit="10" fill="none"/><path d="M158.477 181.152l-13.098-.402M138.047 155.586l21.668-14.75M143.684 159.207l17.332-11.797M159.715 140.836l20.722 16.047M180.438 156.883l-4.43 12.336" stroke-width="1.2" stroke="#000" stroke-miterlimit="10" fill="none"/><path d="M176.008 169.22l-4.43 12.335" stroke-width="1.2" stroke="#00f" stroke-miterlimit="10" fill="none"/><path d="M180.438 156.883l26.46-2.89-2.59-8.884zm0 0"/><path d="M171.578 181.555l7.375 10.832" stroke-width="1.2" stroke="#00f" stroke-miterlimit="10" fill="none"/><path d="M178.953 192.387l7.375 10.836" stroke-width="1.2" stroke="#000" stroke-miterlimit="10" fill="none"/><path d="M167.578 175.055h8v13h-8zm0 0" fill="#fff"/><use xlink:href="#a" x="167.578" y="184.956" fill="#00f"/><path d="M183.55 201.883l-5.695 11.804" stroke-width="1.2" stroke="#000" stroke-miterlimit="10" fill="none"/><path d="M177.855 213.688l-5.695 11.804" stroke-width="1.2" stroke="#f00" stroke-miterlimit="10" fill="none"/><path d="M189.105 204.563l-5.695 11.804" stroke-width="1.2" stroke="#000" stroke-miterlimit="10" fill="none"/><path d="M183.41 216.367l-5.695 11.805" stroke-width="1.2" stroke="#f00" stroke-miterlimit="10" fill="none"/><path d="M186.328 203.223l26.14-1.942" stroke-width="1.2" stroke="#000" stroke-miterlimit="10" fill="none"/><path d="M165.938 220.332h9v13h-9zm0 0" fill="#fff"/><use xlink:href="#b" x="165.938" y="230.233" fill="#f00"/><path d="M212.47 201.28l14.75 21.67M219.043 199.977l11.8 17.335M223.86 177.672l-11.39 23.61M227.22 222.95l26.14-1.942M253.36 221.008l11.39-23.606M248.945 215.97l9.11-18.888M264.75 197.402L250 175.734M250 175.734l-26.14 1.938M247.844 182.078l-20.914 1.55M205.602 149.55l6.234-25.46M211.836 124.09L237 116.758M212.63 117.438l20.128-5.868M192.902 105.965l18.934 18.125M237 116.758l6.234-25.46M243.234 91.297L224.3 73.167M237.074 93.938l-15.144-14.5M224.3 73.168l-25.163 7.336M199.137 80.504l-6.235 25.46M204.504 84.516l-4.988 20.367M116.68 184.37l-4.43 12.337" stroke-width="1.2" stroke="#000" stroke-miterlimit="10" fill="none"/><path d="M112.25 196.707l-4.43 12.332" stroke-width="1.2" stroke="#f00" stroke-miterlimit="10" fill="none"/><path d="M122.484 186.457l-4.43 12.332" stroke-width="1.2" stroke="#000" stroke-miterlimit="10" fill="none"/><path d="M118.055 198.79l-4.43 12.335" stroke-width="1.2" stroke="#f00" stroke-miterlimit="10" fill="none"/><path d="M119.582 185.414l-8.465-10.004" stroke-width="1.2" stroke="#000" stroke-miterlimit="10" fill="none"/><path d="M111.117 175.41l-8.47-10.004" stroke-width="1.2" stroke="#00f" stroke-miterlimit="10" fill="none"/><path d="M101.723 203.582h9v13h-9zm0 0" fill="#fff"/><use xlink:href="#b" x="101.723" y="213.483" fill="#f00"/><path d="M102.648 165.406l-12.898 2.332" stroke-width="1.2" stroke="#00f" stroke-miterlimit="10" fill="none"/><path d="M89.75 167.738l-12.895 2.328" stroke-width="1.2" stroke="#000" stroke-miterlimit="10" fill="none"/><path d="M94.648 158.906h17v13h-17zm0 0" fill="#fff"/><g fill="#00f"><use xlink:href="#a" x="94.648" y="168.808"/><use xlink:href="#c" x="102.632" y="168.808"/></g><path d="M76.855 170.066l-16.937-20.004M59.918 150.063L35.25 141.2M55.258 124.266l4.66 25.796M35.25 141.2l20.008-16.934" stroke-width="1.2" stroke="#000" stroke-miterlimit="10" fill="none"/></g></svg>
